TileServer und Tiles/svg/9/109_71.svg

<?xml version='1.0' encoding='UTF-8' standalone='no'?>
<svg xmlns="http://www.w3.org/2000/svg" width="497pt" viewBox="0 0 497 279" xmlns:xlink="http://www.w3.org/1999/xlink" height="279pt">
 <defs style="stroke:none;" overflow="visible">
  <path id="glyph0-8" d="M 1.140625 0.40625 L 0.5625 -0.046875 L 1.234375 -0.875 C 1.054688 -1.101562 0.925781 -1.367188 0.84375 -1.671875 C 0.757812 -1.984375 0.71875 -2.316406 0.71875 -2.671875 C 0.71875 -3.285156 0.796875 -3.867188 0.953125 -4.421875 C 1.117188 -4.972656 1.359375 -5.457031 1.671875 -5.875 C 1.992188 -6.300781 2.375 -6.632812 2.8125 -6.875 C 3.257812 -7.125 3.765625 -7.25 4.328125 -7.25 C 4.953125 -7.25 5.488281 -7.078125 5.9375 -6.734375 L 6.5625 -7.515625 L 7.140625 -7.0625 L 6.421875 -6.1875 C 6.578125 -5.976562 6.695312 -5.71875 6.78125 -5.40625 C 6.863281 -5.101562 6.90625 -4.78125 6.90625 -4.4375 C 6.90625 -3.820312 6.828125 -3.238281 6.671875 -2.6875 C 6.523438 -2.144531 6.300781 -1.664062 6 -1.25 C 5.707031 -0.832031 5.335938 -0.503906 4.890625 -0.265625 C 4.453125 -0.0234375 3.945312 0.09375 3.375 0.09375 C 2.726562 0.09375 2.191406 -0.0546875 1.765625 -0.359375 Z M 1.84375 -1.640625 L 5.375 -6.0625 C 5.238281 -6.195312 5.078125 -6.296875 4.890625 -6.359375 C 4.710938 -6.429688 4.503906 -6.46875 4.265625 -6.46875 C 3.867188 -6.46875 3.507812 -6.367188 3.1875 -6.171875 C 2.863281 -5.972656 2.585938 -5.703125 2.359375 -5.359375 C 2.128906 -5.015625 1.953125 -4.613281 1.828125 -4.15625 C 1.710938 -3.695312 1.65625 -3.207031 1.65625 -2.6875 C 1.65625 -2.28125 1.71875 -1.929688 1.84375 -1.640625 Z M 3.40625 -0.6875 C 3.800781 -0.6875 4.15625 -0.785156 4.46875 -0.984375 C 4.789062 -1.191406 5.0625 -1.46875 5.28125 -1.8125 C 5.5 -2.164062 5.664062 -2.566406 5.78125 -3.015625 C 5.894531 -3.472656 5.953125 -3.953125 5.953125 -4.453125 C 5.953125 -4.640625 5.9375 -4.8125 5.90625 -4.96875 C 5.882812 -5.125 5.851562 -5.269531 5.8125 -5.40625 L 2.296875 -1.03125 C 2.421875 -0.925781 2.578125 -0.84375 2.765625 -0.78125 C 2.960938 -0.71875 3.175781 -0.6875 3.40625 -0.6875 Z M 3.40625 -0.6875 "/>
  <path id="glyph0-7" d="M 2.125 -6.25 C 1.988281 -6.25 1.875 -6.289062 1.78125 -6.375 C 1.695312 -6.457031 1.65625 -6.570312 1.65625 -6.71875 C 1.65625 -6.894531 1.703125 -7.046875 1.796875 -7.171875 C 1.898438 -7.296875 2.046875 -7.359375 2.234375 -7.359375 C 2.546875 -7.359375 2.703125 -7.207031 2.703125 -6.90625 C 2.703125 -6.695312 2.640625 -6.535156 2.515625 -6.421875 C 2.398438 -6.304688 2.269531 -6.25 2.125 -6.25 Z M 0.28125 0 L 1.421875 -5.359375 L 2.296875 -5.359375 L 1.15625 0 Z M 0.28125 0 "/>
  <path id="glyph0-6" d="M 0.265625 0 L 1.890625 -7.59375 L 2.765625 -7.59375 L 1.15625 0 Z M 0.265625 0 "/>
  <path id="glyph0-5" d="M 0.265625 0 L 1.875 -7.59375 L 2.765625 -7.59375 L 2.125 -4.578125 C 2.007812 -4.046875 1.910156 -3.632812 1.828125 -3.34375 C 1.742188 -3.050781 1.6875 -2.859375 1.65625 -2.765625 L 1.671875 -2.765625 L 4.203125 -5.359375 L 5.25 -5.359375 L 2.953125 -3.0625 L 4.375 0 L 3.40625 0 L 2.28125 -2.515625 L 1.5625 -1.9375 L 1.15625 0 Z M 0.265625 0 "/>
  <path id="glyph0-4" d="M 0.234375 0 L 1.390625 -5.390625 L 2.171875 -5.390625 L 2.0625 -4.40625 C 2.195312 -4.570312 2.347656 -4.738281 2.515625 -4.90625 C 2.679688 -5.070312 2.878906 -5.207031 3.109375 -5.3125 C 3.335938 -5.425781 3.59375 -5.484375 3.875 -5.484375 C 4.3125 -5.484375 4.648438 -5.363281 4.890625 -5.125 C 5.140625 -4.894531 5.265625 -4.566406 5.265625 -4.140625 C 5.265625 -3.984375 5.25 -3.828125 5.21875 -3.671875 C 5.195312 -3.515625 5.175781 -3.375 5.15625 -3.25 L 4.4375 0 L 3.5 0 L 4.21875 -3.375 C 4.25 -3.519531 4.269531 -3.644531 4.28125 -3.75 C 4.300781 -3.851562 4.3125 -3.953125 4.3125 -4.046875 C 4.3125 -4.472656 4.085938 -4.6875 3.640625 -4.6875 C 3.421875 -4.6875 3.179688 -4.609375 2.921875 -4.453125 C 2.671875 -4.304688 2.429688 -4.054688 2.203125 -3.703125 C 1.984375 -3.359375 1.8125 -2.894531 1.6875 -2.3125 L 1.1875 0 Z M 0.234375 0 "/>
  <path id="glyph0-3" d="M 1.9375 0.09375 C 1.507812 0.09375 1.160156 -0.0546875 0.890625 -0.359375 C 0.617188 -0.671875 0.484375 -1.128906 0.484375 -1.734375 C 0.484375 -2.234375 0.546875 -2.707031 0.671875 -3.15625 C 0.804688 -3.601562 0.988281 -4 1.21875 -4.34375 C 1.445312 -4.6875 1.722656 -4.957031 2.046875 -5.15625 C 2.367188 -5.351562 2.722656 -5.453125 3.109375 -5.453125 C 3.460938 -5.453125 3.75 -5.359375 3.96875 -5.171875 C 4.1875 -4.992188 4.347656 -4.78125 4.453125 -4.53125 L 4.515625 -4.53125 L 4.828125 -5.359375 L 5.5 -5.359375 L 4.359375 0 L 3.65625 0 L 3.796875 -0.984375 L 3.75 -0.984375 C 3.519531 -0.691406 3.25 -0.4375 2.9375 -0.21875 C 2.632812 -0.0078125 2.300781 0.09375 1.9375 0.09375 Z M 2.21875 -0.625 C 2.46875 -0.625 2.707031 -0.710938 2.9375 -0.890625 C 3.175781 -1.078125 3.390625 -1.320312 3.578125 -1.625 C 3.773438 -1.9375 3.925781 -2.28125 4.03125 -2.65625 C 4.082031 -2.851562 4.113281 -3.03125 4.125 -3.1875 C 4.144531 -3.351562 4.15625 -3.507812 4.15625 -3.65625 C 4.15625 -3.96875 4.066406 -4.222656 3.890625 -4.421875 C 3.722656 -4.617188 3.492188 -4.71875 3.203125 -4.71875 C 2.941406 -4.71875 2.703125 -4.632812 2.484375 -4.46875 C 2.265625 -4.3125 2.070312 -4.085938 1.90625 -3.796875 C 1.738281 -3.515625 1.609375 -3.191406 1.515625 -2.828125 C 1.421875 -2.472656 1.375 -2.097656 1.375 -1.703125 C 1.375 -1.347656 1.445312 -1.078125 1.59375 -0.890625 C 1.738281 -0.710938 1.945312 -0.625 2.21875 -0.625 Z M 2.21875 -0.625 "/>
  <path id="glyph0-2" d="M 0.28125 0 L 1.421875 -5.359375 L 2.140625 -5.359375 L 2.03125 -4.375 L 2.078125 -4.375 C 2.222656 -4.5625 2.367188 -4.734375 2.515625 -4.890625 C 2.671875 -5.054688 2.84375 -5.191406 3.03125 -5.296875 C 3.226562 -5.398438 3.453125 -5.453125 3.703125 -5.453125 C 3.796875 -5.453125 3.894531 -5.445312 4 -5.4375 C 4.101562 -5.4375 4.203125 -5.421875 4.296875 -5.390625 L 4.09375 -4.59375 C 3.914062 -4.632812 3.75 -4.65625 3.59375 -4.65625 C 3.257812 -4.65625 2.960938 -4.546875 2.703125 -4.328125 C 2.441406 -4.109375 2.222656 -3.828125 2.046875 -3.484375 C 1.878906 -3.148438 1.757812 -2.804688 1.6875 -2.453125 L 1.15625 0 Z M 0.28125 0 "/>
  <path id="glyph0-1" d="M 0.40625 0 L 1.921875 -7.140625 L 5.546875 -7.140625 L 5.375 -6.34375 L 2.640625 -6.34375 L 2.109375 -3.8125 L 4.671875 -3.8125 L 4.5 -3.015625 L 1.9375 -3.015625 L 1.296875 0 Z M 0.40625 0 "/>
  <path id="glyph0-0" d="M 0.9375 0 L 0.9375 -7.140625 L 5.046875 -7.140625 L 5.046875 0 Z M 1.453125 -0.515625 L 4.546875 -0.515625 L 4.546875 -6.625 L 1.453125 -6.625 Z M 1.453125 -0.515625 "/>
 </defs>
 <image width="497" xlink:href="svg/9/109_71.jpg" height="279"/>
 <g>
  <path d="M 270.292969 7.21875 L 271.808594 0.078125 L 275.433594 0.078125 L 275.261719 0.875 L 272.527344 0.875 L 271.996094 3.40625 L 274.558594 3.40625 L 274.386719 4.203125 L 271.824219 4.203125 L 271.183594 7.21875 Z M 270.292969 7.21875 " transform=" rotate(  340 285.79 11.6897) " style="fill:none;stroke-width:2;stroke-linecap:butt;stroke-linejoin:round;stroke:rgb(100%,100%,100%);stroke-opacity:0.6;stroke-miterlimit:10;"/>
  <path d="M 274.9375 7.21875 L 276.078125 1.859375 L 276.796875 1.859375 L 276.6875 2.84375 L 276.734375 2.84375 C 276.878906 2.65625 277.023438 2.484375 277.171875 2.328125 C 277.328125 2.164062 277.5 2.027344 277.6875 1.921875 C 277.882812 1.820312 278.109375 1.765625 278.359375 1.765625 C 278.453125 1.765625 278.550781 1.773438 278.65625 1.78125 C 278.757812 1.78125 278.859375 1.796875 278.953125 1.828125 L 278.75 2.625 C 278.570312 2.585938 278.40625 2.5625 278.25 2.5625 C 277.914062 2.5625 277.617188 2.671875 277.359375 2.890625 C 277.097656 3.109375 276.878906 3.390625 276.703125 3.734375 C 276.535156 4.070312 276.414062 4.414062 276.34375 4.765625 L 275.8125 7.21875 Z M 274.9375 7.21875 " transform=" rotate(  340 285.79 11.6897) " style="fill:none;stroke-width:2;stroke-linecap:butt;stroke-linejoin:round;stroke:rgb(100%,100%,100%);stroke-opacity:0.6;stroke-miterlimit:10;"/>
  <path d="M 280.375 7.3125 C 279.945312 7.3125 279.597656 7.164062 279.328125 6.859375 C 279.054688 6.546875 278.921875 6.089844 278.921875 5.484375 C 278.921875 4.984375 278.984375 4.511719 279.109375 4.0625 C 279.242188 3.617188 279.425781 3.21875 279.65625 2.875 C 279.882812 2.53125 280.160156 2.261719 280.484375 2.0625 C 280.804688 1.867188 281.160156 1.765625 281.546875 1.765625 C 281.898438 1.765625 282.1875 1.859375 282.40625 2.046875 C 282.625 2.226562 282.785156 2.4375 282.890625 2.6875 L 282.953125 2.6875 L 283.265625 1.859375 L 283.9375 1.859375 L 282.796875 7.21875 L 282.09375 7.21875 L 282.234375 6.234375 L 282.1875 6.234375 C 281.957031 6.527344 281.6875 6.78125 281.375 7 C 281.070312 7.210938 280.738281 7.3125 280.375 7.3125 Z M 280.65625 6.59375 C 280.90625 6.59375 281.144531 6.507812 281.375 6.328125 C 281.613281 6.140625 281.828125 5.898438 282.015625 5.59375 C 282.210938 5.28125 282.363281 4.9375 282.46875 4.5625 C 282.519531 4.367188 282.550781 4.1875 282.5625 4.03125 C 282.582031 3.867188 282.59375 3.710938 282.59375 3.5625 C 282.59375 3.25 282.503906 2.996094 282.328125 2.796875 C 282.160156 2.601562 281.929688 2.5 281.640625 2.5 C 281.378906 2.5 281.140625 2.585938 280.921875 2.75 C 280.703125 2.90625 280.507812 3.132812 280.34375 3.421875 C 280.175781 3.703125 280.046875 4.027344 279.953125 4.390625 C 279.859375 4.746094 279.8125 5.121094 279.8125 5.515625 C 279.8125 5.871094 279.882812 6.140625 280.03125 6.328125 C 280.175781 6.507812 280.382812 6.59375 280.65625 6.59375 Z M 280.65625 6.59375 " transform=" rotate(  340 285.79 11.6897) " style="fill:none;stroke-width:2;stroke-linecap:butt;stroke-linejoin:round;stroke:rgb(100%,100%,100%);stroke-opacity:0.6;stroke-miterlimit:10;"/>
  <path d="M 284.351562 7.21875 L 285.507812 1.828125 L 286.289062 1.828125 L 286.179688 2.8125 C 286.3125 2.648438 286.464844 2.480469 286.632812 2.3125 C 286.796875 2.148438 286.996094 2.011719 287.226562 1.90625 C 287.453125 1.792969 287.710938 1.734375 287.992188 1.734375 C 288.429688 1.734375 288.765625 1.855469 289.007812 2.09375 C 289.257812 2.324219 289.382812 2.652344 289.382812 3.078125 C 289.382812 3.234375 289.367188 3.390625 289.335938 3.546875 C 289.3125 3.703125 289.292969 3.84375 289.273438 3.96875 L 288.554688 7.21875 L 287.617188 7.21875 L 288.335938 3.84375 C 288.367188 3.699219 288.386719 3.574219 288.398438 3.46875 C 288.417969 3.367188 288.429688 3.265625 288.429688 3.171875 C 288.429688 2.746094 288.203125 2.53125 287.757812 2.53125 C 287.539062 2.53125 287.296875 2.609375 287.039062 2.765625 C 286.789062 2.914062 286.546875 3.164062 286.320312 3.515625 C 286.101562 3.859375 285.929688 4.324219 285.804688 4.90625 L 285.304688 7.21875 Z M 284.351562 7.21875 " transform=" rotate(  340 285.79 11.6897) " style="fill:none;stroke-width:2;stroke-linecap:butt;stroke-linejoin:round;stroke:rgb(100%,100%,100%);stroke-opacity:0.6;stroke-miterlimit:10;"/>
  <path d="M 290.171875 7.21875 L 291.78125 -0.375 L 292.671875 -0.375 L 292.03125 2.640625 C 291.914062 3.171875 291.816406 3.585938 291.734375 3.875 C 291.648438 4.167969 291.59375 4.359375 291.5625 4.453125 L 291.578125 4.453125 L 294.109375 1.859375 L 295.15625 1.859375 L 292.859375 4.15625 L 294.28125 7.21875 L 293.3125 7.21875 L 292.1875 4.703125 L 291.46875 5.28125 L 291.0625 7.21875 Z M 290.171875 7.21875 " transform=" rotate(  340 285.79 11.6897) " style="fill:none;stroke-width:2;stroke-linecap:butt;stroke-linejoin:round;stroke:rgb(100%,100%,100%);stroke-opacity:0.6;stroke-miterlimit:10;"/>
  <path d="M 295.125 7.21875 L 296.75 -0.375 L 297.625 -0.375 L 296.015625 7.21875 Z M 295.125 7.21875 " transform=" rotate(  340 285.79 11.6897) " style="fill:none;stroke-width:2;stroke-linecap:butt;stroke-linejoin:round;stroke:rgb(100%,100%,100%);stroke-opacity:0.6;stroke-miterlimit:10;"/>
  <path d="M 299.5625 0.96875 C 299.425781 0.96875 299.3125 0.929688 299.21875 0.84375 C 299.132812 0.761719 299.09375 0.648438 299.09375 0.5 C 299.09375 0.324219 299.140625 0.171875 299.234375 0.046875 C 299.335938 -0.078125 299.484375 -0.140625 299.671875 -0.140625 C 299.984375 -0.140625 300.140625 0.0117188 300.140625 0.3125 C 300.140625 0.523438 300.078125 0.683594 299.953125 0.796875 C 299.835938 0.914062 299.707031 0.96875 299.5625 0.96875 Z M 297.71875 7.21875 L 298.859375 1.859375 L 299.734375 1.859375 L 298.59375 7.21875 Z M 297.71875 7.21875 " transform=" rotate(  340 285.79 11.6897) " style="fill:none;stroke-width:2;stroke-linecap:butt;stroke-linejoin:round;stroke:rgb(100%,100%,100%);stroke-opacity:0.6;stroke-miterlimit:10;"/>
  <path d="M 300.253906 7.21875 L 301.410156 1.828125 L 302.191406 1.828125 L 302.082031 2.8125 C 302.214844 2.648438 302.367188 2.480469 302.535156 2.3125 C 302.699219 2.148438 302.898438 2.011719 303.128906 1.90625 C 303.355469 1.792969 303.613281 1.734375 303.894531 1.734375 C 304.332031 1.734375 304.667969 1.855469 304.910156 2.09375 C 305.160156 2.324219 305.285156 2.652344 305.285156 3.078125 C 305.285156 3.234375 305.269531 3.390625 305.238281 3.546875 C 305.214844 3.703125 305.195312 3.84375 305.175781 3.96875 L 304.457031 7.21875 L 303.519531 7.21875 L 304.238281 3.84375 C 304.269531 3.699219 304.289062 3.574219 304.300781 3.46875 C 304.320312 3.367188 304.332031 3.265625 304.332031 3.171875 C 304.332031 2.746094 304.105469 2.53125 303.660156 2.53125 C 303.441406 2.53125 303.199219 2.609375 302.941406 2.765625 C 302.691406 2.914062 302.449219 3.164062 302.222656 3.515625 C 302.003906 3.859375 301.832031 4.324219 301.707031 4.90625 L 301.207031 7.21875 Z M 300.253906 7.21875 " transform=" rotate(  340 285.79 11.6897) " style="fill:none;stroke-width:2;stroke-linecap:butt;stroke-linejoin:round;stroke:rgb(100%,100%,100%);stroke-opacity:0.6;stroke-miterlimit:10;"/>
  <path d="M 285.382812 19.566406 L 284.804688 19.113281 L 285.476562 18.285156 C 285.296875 18.058594 285.167969 17.792969 285.085938 17.488281 C 285 17.175781 284.960938 16.84375 284.960938 16.488281 C 284.960938 15.875 285.039062 15.292969 285.195312 14.738281 C 285.359375 14.1875 285.601562 13.703125 285.914062 13.285156 C 286.234375 12.859375 286.617188 12.527344 287.054688 12.285156 C 287.5 12.035156 288.007812 11.910156 288.570312 11.910156 C 289.195312 11.910156 289.730469 12.082031 290.179688 12.425781 L 290.804688 11.644531 L 291.382812 12.097656 L 290.664062 12.972656 C 290.820312 13.183594 290.9375 13.441406 291.023438 13.753906 C 291.105469 14.058594 291.148438 14.378906 291.148438 14.722656 C 291.148438 15.339844 291.070312 15.921875 290.914062 16.472656 C 290.765625 17.015625 290.542969 17.496094 290.242188 17.910156 C 289.949219 18.328125 289.578125 18.65625 289.132812 18.894531 C 288.695312 19.136719 288.1875 19.253906 287.617188 19.253906 C 286.96875 19.253906 286.433594 19.105469 286.007812 18.800781 Z M 286.085938 17.519531 L 289.617188 13.097656 C 289.480469 12.964844 289.320312 12.863281 289.132812 12.800781 C 288.953125 12.730469 288.746094 12.691406 288.507812 12.691406 C 288.109375 12.691406 287.75 12.792969 287.429688 12.988281 C 287.105469 13.1875 286.828125 13.457031 286.601562 13.800781 C 286.371094 14.144531 286.195312 14.546875 286.070312 15.003906 C 285.953125 15.464844 285.898438 15.953125 285.898438 16.472656 C 285.898438 16.878906 285.960938 17.230469 286.085938 17.519531 Z M 287.648438 18.472656 C 288.042969 18.472656 288.398438 18.375 288.710938 18.175781 C 289.03125 17.96875 289.304688 17.691406 289.523438 17.347656 C 289.742188 16.996094 289.90625 16.59375 290.023438 16.144531 C 290.136719 15.6875 290.195312 15.207031 290.195312 14.707031 C 290.195312 14.519531 290.179688 14.347656 290.148438 14.191406 C 290.125 14.035156 290.09375 13.890625 290.054688 13.753906 L 286.539062 18.128906 C 286.664062 18.234375 286.820312 18.316406 287.007812 18.378906 C 287.203125 18.441406 287.417969 18.472656 287.648438 18.472656 Z M 287.648438 18.472656 " transform=" rotate(  340 285.79 11.6897) " style="fill:none;stroke-width:2;stroke-linecap:butt;stroke-linejoin:round;stroke:rgb(100%,100%,100%);stroke-opacity:0.6;stroke-miterlimit:10;"/>
  <g transform=" rotate(  340 285.79 11.6897) " style="fill:rgb(0%,0%,0%);fill-opacity:1;">
   <use xlink:href="#glyph0-1" y="7.219652" x="269.8876"/>
   <use xlink:href="#glyph0-2" y="7.219652" x="274.6576"/>
   <use xlink:href="#glyph0-3" y="7.219652" x="278.4376"/>
   <use xlink:href="#glyph0-4" y="7.219652" x="284.1176"/>
   <use xlink:href="#glyph0-5" y="7.219652" x="289.9076"/>
   <use xlink:href="#glyph0-6" y="7.219652" x="294.8576"/>
   <use xlink:href="#glyph0-7" y="7.219652" x="297.4376"/>
   <use xlink:href="#glyph0-4" y="7.219652" x="300.0176"/>
   <use xlink:href="#glyph0-8" y="19.159652" x="284.2426"/>
  </g>
 </g>
</svg>

<svg xmlns="http://www.w3.org/2000/svg" xmlns:xlink="http://www.w3.org/1999/xlink" viewBox="0 0 497 279"> <defs overflow="visible" style="stroke:none">  <path id="h" d="M1.1.4.6 0l.6-1a2.2 2.2 0 0 1-.4-.7v-1C.7-3.3.7-3.9 1-4.4c0-.6.4-1 .7-1.6l1.1-.9a3 3 0 0 1 1.5-.3c.7-.1 1.2 0 1.7.4l.6-.7.4.4L6.4-6c.2 0 .3.2.4.5l.1 1.1c.1.6.1 1.2-.2 1.7L6-1.2l-1.1.9c-.4.3-1 .3-1.5.3-.7 0-1.2-.1-1.6-.4Zm.7-2 3.6-4.5a1.3 1.3 0 0 0-.5-.3h-.6a2 2 0 0 0-1.1.1l-.8.9a4 4 0 0 0-.6 1.2 6 6 0 0 0-.1 1.5l.1 1Zm1.6 1a2 2 0 0 0 1-.4c.5-.2.8-.5 1-.8L5.8-3A6 6 0 0 0 6-4.5V-5l-.3-.4L2.3-1l.5.2.6.1Zm0-.1"/>  <path id="g" d="M2.1-6.3h-.3l-.1-.5.1-.4.4-.2c.3 0 .5.2.5.5 0 .2 0 .4-.2.5l-.4.2ZM.3 0l1.1-5.4h.9L1.2 0Zm0 0"/>  <path id="f" d="m.3 0 1.6-7.6h.9L1.2 0Zm0 0"/>  <path id="e" d="m.3 0 1.6-7.6h.9l-.8 3c.1.6 0 1-.2 1.3l-.1.5 2.5-2.6h1L3-3l1.4 3h-1L2.3-2.5l-.7.5-.4 2Zm0 0"/>  <path id="d" d="m.2 0 1.2-5.4h.8l-.2 1 .5-.6a2 2 0 0 1 .6-.3l.9-.2c.3 0 .6.1.9.5.1 0 .4.4.4.9v.4l-.2.5L4.4 0h-.9l.7-3.4v-.4l.2-.2c-.1-.5-.3-.7-.8-.7-.2 0-.4 0-.6.2-.3.2-.6.5-.8.8-.2.3-.4.8-.5 1.4L1.2 0Zm0 0"/>  <path id="c" d="M2 0c-.6 0-.9 0-1.2-.3C.6-.7.5-1 .5-1.7c0-.5 0-1 .2-1.5l.5-1.1c.2-.4.5-.7.8-.9a2 2 0 0 1 1.1-.3c.4 0 .6.1.9.3l.5.7.3-.9h.7L4.4 0h-.7l.1-1c-.3.3-.5.6-.9.8-.3.2-.6.2-.9.2Zm.1-.5c.4-.1.6-.2.9-.5l.6-.6a4 4 0 0 0 .4-1 3 3 0 0 0 .1-.7 4 4 0 0 0 0-.4c.1-.3.1-.5-.1-.7-.3-.2-.5-.3-.8-.3-.3 0-.5 0-.7.2a2 2 0 0 0-.6.7l-.4 1-.1 1.1c0 .4 0 .6.2.8.1.2.3.3.6.3Zm.1-.1"/>  <path id="b" d="m.3 0 1.1-5.4h.7v1l.4-.5.5-.4.7-.2H4l.3.2-.2.7h-.5c-.3-.1-.6-.1-.9.2l-.7.9-.3 1L1.2 0Zm0 0"/>  <path id="a" d="M.4 0 2-7.1h3.5l-.1.8H2.6l-.5 2.5h2.6l-.2.8H1.9l-.6 3Zm0 0"/>  <path d="M1 0v-7.1h4V0Zm.4-.5h3.1v-6.1h-3Zm.1 0"/> </defs> <image xlink:href="svg/9/109_71.jpg" width="497" height="279"/> <path d="m270.3 7.2 1.5-7.1h3.6l-.1.8h-2.8l-.5 2.5h2.6l-.2.8h-2.6l-.6 3Zm4.7 0 1-5.2h.9l-.2.9.5-.7.5-.2.7-.2h.6l-.3.8h-.3c-.5 0-.8 0-1.1.3l-.5.8-.5 1-.5 2.6Zm5.4.1c-.5 0-.8-.1-1-.3-.4-.5-.6-1-.6-1.5.2-.5.2-1 .3-1.5.1-.4.3-.8.6-1.1.2-.4.5-.6.8-.9a2 2 0 0 1 1-.2c.5 0 .7 0 1 .2l.3.7.6-.8h.5l-1.1 5.3h-.7l.1-1-.8.8c-.4.2-.7.3-1 .3Zm.3-.7c.2 0 .3 0 .7-.3l.6-.7a4 4 0 0 0 .5-1 3 3 0 0 0 0-.6 4 4 0 0 0 .1-.4c0-.4 0-.6-.2-.8-.2-.2-.4-.3-.8-.3-.2 0-.5 0-.6.3a2 2 0 0 0-.7.6c-.1.3-.3.6-.3 1l-.2 1.1c0 .5 0 .6.2.8.2.2.4.3.7.3Zm3.7.6 1.1-5.4h.8l-.1 1 .4-.5a2 2 0 0 1 .6-.3l.8-.3c.4 0 .8.3 1 .4.3.2.4.6.4.9v.5l-.2.5-.6 3.2h-1l.7-3.4.1-.3v-.3c0-.5-.2-.7-.6-.7-.3 0-.5.1-.8.3l-.7.7c-.2.5-.3.8-.5 1.5l-.5 2.2Zm5.8 0 1.6-7.6h.9l-.7 3c0 .6-.2 1-.3 1.4l-.1.5 2.4-2.6h1.1L293 4.2l1.3 3h-1l-1.1-2.5-.7.6-.5 2Zm4.9 0 1.6-7.6h1.1L296 7.2Zm4.5-6.2c-.2 0-.3 0-.4-.2l-.1-.3.1-.5h.5c.3-.1.3 0 .3.3v.5l-.4.2Zm-1.9 6.2L299 2h.7l-1.1 5.2Zm2.6 0 1.1-5.4h.8l-.2 1 .5-.5a2 2 0 0 1 .6-.3l.9-.3c.3 0 .7.3.9.4.3.2.4.6.4.9v.5l-.2.5-.6 3.2h-1l.7-3.4.1-.3v-.3c0-.5-.2-.7-.6-.7-.3 0-.5.1-.8.3l-.7.7c-.2.5-.4.8-.5 1.5l-.5 2.2Zm-14.9 12.4-.6-.6.7-.7a2.2 2.2 0 0 1-.5-.8v-1c0-.6 0-1.2.2-1.8l.7-1.4c.3-.4.7-.8 1.2-1a3 3 0 0 1 1.5-.4c.6.1 1.1.2 1.6.5l.6-.8.6.5-.7.9.3.8.1 1c0 .4 0 1-.1 1.6-.2.6-.5 1.1-.8 1.5-.2.4-.6.8-1 1.1-.6 0-1.1.3-1.7.3-.5 0-1.1-.3-1.5-.5Zm.6-2 3.6-4.6a1.3 1.3 0 0 0-.5-.2l-.6-.1a2 2 0 0 0-1 .3c-.5.2-.8.5-1 .8a4 4 0 0 0-.4 1.2 6 6 0 0 0-.2 1.5c0 .4 0 .7.2 1Zm1.6.8a2 2 0 0 0 1.1-.2c.3-.2.6-.5.8-.9l.5-1.2a6 6 0 0 0 .2-1.4v-.5l-.2-.4-3.5 4.2.5.4h.6Zm0 .1" style="fill:none;stroke-width:2;stroke-linecap:butt;stroke-linejoin:round;stroke:#fff;stroke-opacity:.6;stroke-miterlimit:10" transform=" rotate(  340 285.79 11.6897) "/> <g style="fill:#000;fill-opacity:1" transform=" rotate(  340 285.79 11.6897) ">  <use xlink:href="#a" x="269.9" y="7.2"/>  <use xlink:href="#b" x="274.7" y="7.2"/>  <use xlink:href="#c" x="278.4" y="7.2"/>  <use xlink:href="#d" x="284.1" y="7.2"/>  <use xlink:href="#e" x="289.9" y="7.2"/>  <use xlink:href="#f" x="294.9" y="7.2"/>  <use xlink:href="#g" x="297.4" y="7.2"/>  <use xlink:href="#d" x="300" y="7.2"/>  <use xlink:href="#h" x="284.2" y="19.2"/> </g></svg>
